!!!!SEGMENT: pl-sa--552-a-ix-32--038_anonim--keyboard-piece.krn
!!!cenid: 18xx:549
!!!COM: Anonim
!!!COM-rism: pe30004985
!!!CDT:
!!!CNT:
!!!OTL: Keyboard piece
!!!PDT:
!!!AGN: Secular
!!!SMS-siglum: PL-SA
!!!SMS-shelfmark: 552/A IX 32
!!!NIFC-rismID: 1001069581
!!!URL-scan: http://bc.bdsandomierz.pl/dlibra/publication/1308/edition/1276/content
!!!ONB-nifc: Str. 21, s. 1-3
!!!SMS-variant:
!!!SMS-altvar:
**kern	**kern
*part2	*part1
*staff2	*staff1
*clefF4	*clefG2
*k[]	*k[]
*M2/4	*M2/4
=1	=1
*clefG2	*
!LO:TX:a:t=P:problem:na początku linijki omyłkowo wpisany klucz F3, dalej też klucz F3 zamiast F4: global	!
16c/LL	4ccT\
16g/	.
16e/	.
16g/JJ	.
*rep	*
16c/LL	8r
16g/	.
16e/	32gg\LLL
.	32ff\
16g/JJ	32ee\
.	32dd\JJJ
*Xrep	*
=2	=2
*rep	*
16c/LL	4cc\
16g/	.
16e/	.
16g/JJ	.
*Xrep	*
*rep	*
16c/LL	8r
16g/	.
16e/	16cc\LL
16g/JJ	16ee\JJ
*Xrep	*
=3	=3
16B/LL	4dd 4b\
16g/	.
16d/	.
16g/JJ	.
*rep	*
16B/LL	8r
16g/	.
16d/	32aa\LLL
.	32gg\
16g/JJ	32ff\
.	32ee\JJJ
*Xrep	*
=4	=4
*rep	*
!	!LO:N:vis=4
16B/LL	8dd\
16g/	.
16d/	8r
16g/JJ	.
*Xrep	*
*rep	*
16B/LL	8r
16g/	.
16d/	16dd\LL
16g/JJ	16ff\JJ
*Xrep	*
=5	=5
16c/LL	4ee 4cc\
16g/	.
16e/	.
16g/JJ	.
16B/LL	8r
16g/	.
16d/	16dd\LL
16g/JJ	16ff\JJ
=6	=6
16c/LL	4ee 4cc\
16g/	.
16e/	.
16g/JJ	.
16B/LL	8r
16g/	.
16d/	16dd\LL
16g/JJ	16ff\JJ
=7	=7
!LO:TX:a:t=P:problem:repetycja w górnym głosie	!LO:TX:a:t=P:problem:takt zapisany repetycją
2ryy	4eeyy 4cc\yy
.	8ryy
.	16dd\LLyy
.	16ff\JJyy
=8	=8
8c/L	16ee\LL
.	16cc\
8g/J	16ff\
.	16dd\JJ
8g/L	16dd\LL
.	16cc\
8G/J	16cc\
.	16b\JJ
*clefF4	*
=9	=9
8c\L	4cc\
8G\J	.
!LO:N:vis=4	!LO:N:vis=4
8C/	8r
!LO:N:vis=4	!LO:N:vis=4
8r	8r
=10	=10
!	!LO:TX:a:t=P:problem:otwarcie repetycji,brak zamknięcia
.	8qcc#X/
16G\LL	4dd\
16d\	.
16B\	.
16d\JJ	.
16F#X\LL	32dd\LLL
.	32ee\
16d\	32ff\
.	32gg\JJJ
16A\	32aa\LLL
.	32gg\
16d\JJ	32ff\
.	32ee\JJJ
!!LO:LB:g=original
=11	=11
16G\LL	4ddT\
16d\	.
16B\	.
16d\JJ	.
16F#X\LL	8.cc\L
16d\	.
16A\	.
16d\JJ	32b\LL
.	32cc\JJJ
=12	=12
16G\LL	4b\
16d\	.
16B\	.
16d\JJ	.
*rep	*
16G\LL	8r
16d\	.
16B\	8dd\
16d\JJ	.
*Xrep	*
=13	=13
16G\LL	4eet\
16e\	.
16c\	.
16e\JJ	.
*rep	*
16G\LL	16.ee\LL
16e\	.
.	32gg\K
16c\	16ccc\
16e\JJ	16eee\JJ
*Xrep	*
=14	=14
16G\LL	4ddT\
16d\	.
16B\	.
16d\JJ	.
*rep	*
16G\LL	16dd\LL
16d\	16gg\
16B\	16bb\
16d\JJ	16ddd\JJ
*Xrep	*
=15	=15
!LO:TX:a:t=P:problem:mixed beam	!
16D/LL	8fffL 8bb\
16d\JJ	.
!LO:TX:a:t=P:problem:mixed beam	!
16D/LL	8ccc 8aa\
16d\JJ	.
!LO:TX:a:t=P:problem:mixed beam	!
*rep	*
16D/LL	8bb 8gg\
16d\JJ	.
!LO:TX:a:t=P:problem:mixed beam	!
16D/LL	8aaJ 8ff#X\
16d\JJ	.
*Xrep	*
=16	=16
!	!LO:N:vis=4
16G\LL	8bb 8gg\
16d\	.
16B\	8r
16d\JJ	.
*rep	*
16G\LL	8r
16d\	.
16B\	8dd\
16d\JJ	.
*Xrep	*
=17	=17
.	8qdd#X/
16G\LL	8ee\L
16e\	.
.	8qff#X/
16c\	8gg\J
16e\JJ	.
*rep	*
.	8qbb/
16G\LL	8ccc\L
16e\	.
.	8qddd#X/
16c\	8eee\J
16e\JJ	.
*Xrep	*
=18	=18
.	8qcc#X/
16G\LL	8dd\L
16d\	.
.	8qff#X/
16B\	8gg\J
16d\JJ	.
*rep	*
.	8qbb-X/
16G\LL	8bbn\L
16d\	.
.	8qccc#X/
16B\	8ddd\J
16d\JJ	.
*Xrep	*
=19	=19
!LO:TX:a:t=P:problem:mixed beam	!
16D/LL	8fffL 8bb\
16d\JJ	.
*rep	*
!LO:TX:a:t=P:problem:mixed beam	!
16D/LL	8ccc 8aa\
16d\JJ	.
!LO:TX:a:t=P:problem:mixed beam	!
16D/LL	8bb 8gg\
16d\JJ	.
!LO:TX:a:t=P:problem:mixed beam	!
16D/LL	8aaJ 8ff#X\
16d\JJ	.
*Xrep	*
=20	=20
16G\LL	4bb 4gg\
16d\	.
16B\	.
16d\JJ	.
!	!LO:N:vis=4
16F#X\LL	8r
16d\	.
16B\	16aaLL 16ff#X\
16d\JJ	16cccJJ 16aa\
!!LO:LB:g=original
=21	=21
*rep	*
16G\LL	4bb 4gg\
16d\	.
16B\	.
16d\JJ	.
*Xrep	*
*rep	*
!	!LO:N:vis=4
16F#X\LL	8r
16d\	.
16B\	16aaLL 16ff#X\
16d\JJ	16cccJJ 16aa\
*Xrep	*
=22	=22
*rep	*
16G\LL	4bb 4gg\
16d\	.
16B\	.
16d\JJ	.
*Xrep	*
*rep	*
!	!LO:N:vis=4
16F#X\LL	8r
16d\	.
16B\	16aaLL 16ff#X\
16d\JJ	16cccJJ 16aa\
*Xrep	*
=23	=23
8G\L	16bb\LL
.	16gg\
!	!LO:TX:a:t=c
8c\J	16aa\
!	!LO:TX:a:t=a
.	16ccc\JJ
!LO:TX:a:t=P:problem:mixed beam	!
8d\L	16aa\LL
.	16gg\
8D/J	16gg\
.	16ff#X\JJ
=24	=24
16G\LL	8ggL 8b\
16g\JJ	.
16G\LL	8dd 8b\
16g\JJ	.
*rep	*
16G\LL	8ee 8cc\
16g\JJ	.
16G\LL	8ff#XJ 8dd\
16g\JJ	.
*Xrep	*
=25	=25
*rep	*
16G\LL	8ggL 8b\
16g\JJ	.
16G\LL	8dd 8b\
16g\JJ	.
*Xrep	*
*rep	*
16G\LL	8ee 8cc\
16g\JJ	.
16G\LL	8ff#XJ 8dd\
16g\JJ	.
*Xrep	*
=26	=26
*rep	*
16G\LL	8ggL 8b\
16g\JJ	.
16G\LL	8dd 8b\
16g\JJ	.
*Xrep	*
*rep	*
16G\LL	8ee 8cc\
16g\JJ	.
16G\LL	8ff#XJ 8dd\
16g\JJ	.
*Xrep	*
=27	=27
*rep	*
16G\LL	8ggL 8b\
16g\JJ	.
16G\LL	8ggJ 8b\
16g\JJ	.
*Xrep	*
*rep	*
!	!LO:N:vis=4
16G\LL	8gg 8b\
16g\JJ	.
!	!LO:N:vis=4
16G\LL	8r
!LO:TX:a:t=P:problem:kreska taktowa :||:	!LO:TX:a:t=P:problem:kreska taktowa :||:
16g\JJ	.
*Xrep	*
==	==
*-	*-
!!!system-decoration: {s1,s2}
!!!ENC: Marta Lawrence
!!!END: 2020-12-13
!!!ENC: Andrzej Borzym
!!!END: 2020-06-18
